src/components/footer/img/brands/facebook.svg

<svg width="22" height="22" viewBox="0 0 22 22" fill="none" xmlns="http://www.w3.org/2000/svg">
<path d="M19.25 0.5C19.875 0.5 20.4062 0.71875 20.8438 1.15625C21.2812 1.59375 21.5 2.125 21.5 2.75V19.25C21.5 19.875 21.2812 20.4062 20.8438 20.8438C20.4062 21.2812 19.875 21.5 19.25 21.5H12.8281V14.375H15.5469L16.0625 11H12.8281V8.79688C12.8281 7.60938 13.4531 7.01562 14.7031 7.01562H16.1562V4.15625C15.2812 4 14.4219 3.92188 13.5781 3.92188C12.6719 3.92188 11.8906 4.09375 11.2344 4.4375C10.6094 4.78125 10.1094 5.29687 9.73438 5.98438C9.35938 6.67188 9.17188 7.48438 9.17188 8.42188V11H6.21875V14.375H9.17188V21.5H2.75C2.125 21.5 1.59375 21.2812 1.15625 20.8438C0.71875 20.4062 0.5 19.875 0.5 19.25V2.75C0.5 2.125 0.71875 1.59375 1.15625 1.15625C1.59375 0.71875 2.125 0.5 2.75 0.5H19.25Z" fill="url(#paint0_linear)"/>
<defs>
<linearGradient id="paint0_linear" x1="11" y1="1" x2="11" y2="25" gradientUnits="userSpaceOnUse">
<stop stop-color="#BC9CFF"/>
<stop offset="1" stop-color="#8BA4F9"/>
</linearGradient>
</defs>
</svg>

<svg xmlns="http://www.w3.org/2000/svg" width="22" height="22" fill="none"><path fill="url(#a)" d="M19.25.5c.63 0 1.16.22 1.6.66.43.43.65.97.65 1.6v16.5c0 .6-.22 1.15-.66 1.58-.43.44-.96.66-1.6.66h-6.4v-7.13h2.7l.52-3.37h-3.23V8.8c0-1.2.62-1.78 1.87-1.78h1.46V4.16c-.88-.16-1.74-.24-2.58-.24-.9 0-1.7.17-2.35.52-.62.34-1.12.86-1.5 1.54-.37.7-.56 1.5-.56 2.44V11H6.22v3.38h2.95v7.12H2.75c-.63 0-1.16-.22-1.6-.66-.43-.43-.65-.96-.65-1.6V2.75c0-.62.22-1.15.66-1.58C1.6.72 2.13.5 2.76.5h16.5z"/><defs><linearGradient id="a" x1="11" x2="11" y1="1" y2="25" gradientUnits="userSpaceOnUse"><stop stop-color="#BC9CFF"/><stop offset="1" stop-color="#8BA4F9"/></linearGradient></defs></svg>
